icon-svg/echo-gen-2.svg

<svg xmlns="http://www.w3.org/2000/svg" fill="#44739e" viewBox="0 0 24 24"><path d="M8.834 4.413C14.422 5.845 22.351 2.3 11.089 2 8.737 2.057 4.2 3.275 8.834 4.413m6.41-1.186c.444.475-1.154.456-1.424.237-.159-.549 1.29-.464 1.424-.237m-2.611-.515c-.364.227-1.641.284-1.5-.237.414-.209 1.611-.325 1.5.237m0 1.346c-.364.226-1.641.284-1.5-.238.414-.209 1.611-.32 1.5.238m-2.691-.831c.111.608-1.728.524-1.5 0a1.942 1.942 0 0 1 1.5 0m6.858.659-1.146.541a13.31 13.31 0 0 1-8.822-.335s-.212 16.762-.159 16.787a13.333 13.333 0 0 0 10.235.192S16.8 4.753 16.8 3.886"/></svg>

<?xml version="1.0" encoding="UTF-8"?>
<svg width="24px" height="24px" viewBox="0 0 24 24" version="1.1" fill="#44739e" xmlns="http://www.w3.org/2000/svg" xmlns:xlink="http://www.w3.org/1999/xlink">
            <path d="M 8.834,4.413 C 14.422,5.845 22.351,2.3 11.089,2 8.737,2.057 4.2,3.275 8.834,4.413 Z m 6.41,-1.186 C 15.688,3.702 14.09,3.683 13.82,3.464 13.661,2.915 15.11,3 15.244,3.227 Z M 12.633,2.712 c -0.364,0.227 -1.641,0.284 -1.5,-0.237 0.414,-0.209 1.611,-0.325 1.5,0.237 z m 0,1.346 c -0.364,0.226 -1.641,0.284 -1.5,-0.238 0.414,-0.209 1.611,-0.32 1.5,0.238 z M 9.942,3.227 c 0.111,0.608 -1.728,0.524 -1.5,0 a 1.942,1.942 0 0 1 1.5,0 z M 16.8,3.886 15.654,4.427 A 13.309,13.309 0 0 1 6.832,4.092 c 0,0 -0.212,16.762 -0.159,16.787 a 13.333,13.333 0 0 0 10.235,0.192 c 0,0 -0.108,-16.318 -0.108,-17.185 z"/>

</svg>
